X: 135
T: The Four Leaved Shamrock
N:"Spirited"
B:O'Neill's 135
Z:Transcribed by henrik.norbeck@mailbox.swipnet.se
M:C
L:1/8
K:G
d|dBce dg z g|g>fge d2 z d|dcAF GBdg|gecA G2 ({FAG}F)>d|
dBce dgfg|agfe d3 d|dc{c}BA Ggfe|dBB>A G3||
g|aefd gBcd|eABc HF3 d|dBce dgfg|gfef Hg3 e||
dBA>G HG2 [b2B2]|[bB][aA][bB][aA] [g2G2]||


